packages/storefront-lwc/src/assets/fonts/flags/1x1/za.svg

<svg height="512" width="512" xmlns="http://www.w3.org/2000/svg" xmlns:xlink="http://www.w3.org/1999/xlink"><clipPath id="a"><path d="m70.133 0h499.61v499.61h-499.61z"/></clipPath><g clip-path="url(#a)" transform="matrix(1.0248 0 0 1.0248 -71.873 0)"><g fill-rule="evenodd" stroke-width="1pt"><path d="m.001 397.908v-296.062l220.373 147.955-220.374 148.117z"/><path d="m150.371 499.667 247.41-166.512h351.66v166.512z" fill="#00c"/><path d="m134.465.007 614.957.013v166.54h-351.662s-259.998-168.2-263.295-166.553z" fill="#f00"/><path d="m.001 62.47v39.352l220.373 147.955-220.374 148.117v39.35l277.564-187.467z" fill="#fc0"/><path d="m.001 62.47v-62.463h92.599l294.03 198.943h362.79v101.737h-362.79l-294.032 198.913h-92.598v-62.356l277.564-187.468z" fill="#093"/><path d="m92.599.007h57.762l247.41 166.54h351.66v32.403h-362.79l-294.031-198.943zm0 499.66h57.762l247.41-166.512h351.66v-32.402h-362.79l-294.031 198.914z" fill="#fff"/></g></g></svg>

<svg xmlns="http://www.w3.org/2000/svg" height="512" width="512" id="flag-icon-css-za">
  <defs>
    <clipPath id="a">
      <path fill-opacity=".67" d="M70.133 0h499.61v499.61H70.133z"/>
    </clipPath>
  </defs>
  <g transform="translate(-71.873) scale(1.0248)" clip-path="url(#a)">
    <g fill-rule="evenodd" stroke-width="1pt">
      <path d="M.001 397.908V101.846l220.373 147.955L0 397.918z"/>
      <path d="M150.371 499.667l247.41-166.512h351.66v166.512h-599.07z" fill="#00c"/>
      <path d="M134.465.007L749.422.02v166.54H397.76S137.762-1.64 134.465.007z" fill="red"/>
      <path d="M.001 62.47v39.352l220.373 147.955L0 397.894v39.35l277.564-187.467L.001 62.47z" fill="#fc0"/>
      <path d="M.001 62.47V.007H92.6L386.63 198.95h362.79v101.737H386.63L92.598 499.6H0v-62.356l277.564-187.468L.001 62.47z" fill="#093"/>
      <path d="M92.599.007h57.762l247.41 166.54h351.66v32.403h-362.79L92.61.007zm0 499.66h57.762l247.41-166.512h351.66v-32.402h-362.79L92.61 499.667z" fill="#fff"/>
    </g>
  </g>
</svg>
